la/mandalorian.svg

<svg xmlns="http://www.w3.org/2000/svg" viewBox="0 0 32 32" height="1em" width="1em">
  <path d="M 19.646484 2 L 19.394531 2.1230469 C 19.150531 2.2440469 19.131547 2.2494844 18.560547 2.2714844 L 17.972656 2.2929688 L 17.734375 2.4238281 C 17.512375 2.5458281 17.486609 2.5506719 17.349609 2.5136719 C 17.254609 2.4846719 17.162172 2.4445312 17.076172 2.3945312 C 16.974172 2.3415312 16.863047 2.3060156 16.748047 2.2910156 C 16.640047 2.2770156 16.532688 2.2517969 16.429688 2.2167969 C 16.328687 2.1747969 16.282031 2.1772813 16.082031 2.2382812 C 15.976031 2.2732812 15.867859 2.2985469 15.755859 2.3105469 C 15.615859 2.3295469 15.476797 2.3603438 15.341797 2.4023438 C 15.166797 2.4533437 14.987453 2.4846563 14.939453 2.4726562 C 14.819453 2.4426563 14.545031 2.5712187 14.457031 2.6992188 C 14.297031 2.9732188 13.999953 3.4240469 14.126953 3.7480469 C 14.312953 3.9940469 14.98475 3.8076094 14.96875 4.2246094 C 14.85175 4.7146094 14.666094 5.1842031 14.496094 5.6582031 L 13.876953 5.5195312 C 14.285953 4.1395313 14.223469 4.6655938 13.105469 3.9335938 C 13.134469 3.8045937 13.178328 3.6795469 13.236328 3.5605469 C 13.389328 3.3375469 13.53125 3.1003594 13.53125 3.0683594 C 13.54625 3.0213594 13.572469 2.9784062 13.605469 2.9414062 C 13.695469 2.8264062 13.705094 2.5615625 13.621094 2.4765625 C 13.537094 2.3915625 13.449422 2.3825781 12.982422 2.3925781 C 12.603422 2.3985781 12.542328 2.4099531 12.361328 2.5019531 C 12.246328 2.5609531 11.99725 2.7578906 11.78125 2.9628906 L 11.404297 3.3203125 L 11.416016 4.03125 L 11.427734 4.7421875 L 11.560547 5.015625 C 11.692547 5.288625 11.836734 5.440875 12.177734 5.671875 C 12.229734 5.703875 12.278219 5.7392969 12.324219 5.7792969 C 12.335219 5.7922969 12.447172 5.8853281 12.576172 5.9863281 C 12.704172 6.0873281 12.860828 6.2086719 12.923828 6.2636719 C 13.139828 6.4506719 13.385344 6.5953594 13.652344 6.6933594 C 14.139344 6.8663594 14.269375 7.0365313 14.359375 7.6445312 C 14.406375 7.9575313 14.543906 8.406625 14.628906 8.515625 C 14.652906 8.544625 14.714516 8.780625 14.853516 9.390625 C 14.875516 9.490625 14.900203 9.6301719 14.908203 9.7011719 C 14.916203 9.7721719 14.938984 9.9031406 14.958984 9.9941406 C 15.016984 10.317141 15.054359 10.643703 15.068359 10.970703 C 15.068359 11.104703 15.054312 11.132219 14.945312 11.199219 C 14.890312 11.236219 14.828672 11.262391 14.763672 11.275391 C 14.683672 11.275391 14.536844 10.976969 14.464844 10.667969 C 14.355844 10.183969 14.200969 9.9795469 13.917969 9.9355469 C 13.680969 9.8985469 13.273109 9.5996719 12.662109 9.0136719 C 12.584109 8.9486719 12.497297 8.8964219 12.404297 8.8574219 C 11.996297 8.6874219 11.754266 8.52025 11.572266 8.28125 C 11.459266 8.13325 11.449219 8.0979063 11.449219 7.8789062 C 11.456219 7.6749062 11.476859 7.4705312 11.505859 7.2695312 C 11.575859 6.7895313 11.573 6.5178594 11.5 6.2558594 C 11.406 5.9278594 11.158375 5.7924219 10.984375 5.9824219 C 10.827375 6.1534219 10.531297 6.9680781 10.404297 7.5800781 C 10.347297 7.8560781 10.284109 8.0119687 10.162109 8.1679688 C 10.111109 8.2259687 10.092281 8.3058594 10.113281 8.3808594 C 10.140281 8.5228594 10.368406 9.0341875 10.441406 9.1171875 C 10.494406 9.1881875 10.541984 9.2637969 10.583984 9.3417969 L 10.675781 9.5058594 L 10.601562 9.7597656 C 10.479563 10.177766 10.478813 10.153156 10.632812 10.285156 C 10.709812 10.350156 11.048766 10.679813 11.384766 11.007812 C 12.086766 11.699813 12.204453 11.768734 12.689453 11.802734 C 12.989453 11.824734 13.11125 11.868703 13.15625 11.970703 C 13.16925 12.001703 13.184453 12.298859 13.189453 12.630859 C 13.212453 14.026859 13.208297 14.007219 13.529297 14.449219 L 13.708984 14.699219 L 13.757812 15.175781 C 13.817813 15.749781 13.817813 17.545297 13.757812 18.404297 L 13.716797 19.001953 L 13.824219 19.154297 C 13.882219 19.238297 14.201297 19.580109 14.529297 19.912109 C 14.986297 20.371109 15.159906 20.572953 15.253906 20.751953 L 15.376953 20.986328 L 15.353516 21.902344 C 15.340516 22.406344 15.312016 22.876266 15.291016 22.947266 C 15.270016 23.018266 15.228266 23.454969 15.197266 23.917969 C 15.145266 24.706969 15.099687 25.308312 15.054688 25.820312 C 15.043688 25.941312 15.018047 26.254625 14.998047 26.515625 C 14.940047 27.299625 14.854406 28.134828 14.816406 28.298828 C 14.752406 28.580828 14.767656 28.63175 14.972656 28.84375 C 15.216656 29.09375 15.62125 29.401328 15.65625 29.361328 C 15.71725 29.291328 15.769063 28.685922 15.789062 27.794922 C 15.801063 27.271922 15.815266 26.751578 15.822266 26.642578 C 15.830266 26.466578 15.859641 25.578922 15.931641 23.294922 C 15.942641 22.952922 15.959703 22.526656 15.970703 22.347656 C 15.991703 22.016656 15.961844 21.769094 15.839844 21.246094 C 15.796844 21.059094 15.766094 20.870687 15.746094 20.679688 C 15.728094 20.511687 15.689813 20.3465 15.632812 20.1875 C 15.583812 20.0675 15.5535 19.962125 15.5625 19.953125 C 15.5715 19.944125 15.562969 19.907094 15.542969 19.871094 C 15.485969 19.764094 15.437594 19.169531 15.433594 18.519531 C 15.429594 17.869531 15.380359 17.599469 15.193359 17.230469 C 15.099359 17.045469 14.615453 16.348484 14.439453 16.146484 L 14.330078 16.023438 L 14.349609 15.355469 C 14.371609 14.650469 14.416672 14.316344 14.513672 14.152344 C 14.594672 14.014344 14.667719 14.039328 14.761719 14.236328 C 14.849719 14.421328 14.937312 14.517469 15.320312 14.855469 C 15.605313 15.105469 15.726562 15.265484 15.726562 15.396484 C 15.711563 15.485484 15.679766 15.570438 15.634766 15.648438 C 15.496766 15.914438 15.510453 16.200875 15.689453 16.796875 C 15.768453 17.059875 15.843422 17.354219 15.857422 17.449219 C 15.869422 17.540219 15.8965 17.626984 15.9375 17.708984 C 15.9875 17.787984 15.993828 17.793281 16.048828 17.738281 C 16.094828 17.668281 16.124766 17.588859 16.134766 17.505859 C 16.147766 17.408859 16.176172 17.205687 16.201172 17.054688 C 16.226172 16.903688 16.26025 16.702469 16.28125 16.605469 C 16.34525 16.327469 16.331187 16.036625 16.242188 15.765625 C 16.198187 15.629625 16.147906 15.509047 16.128906 15.498047 C 16.082906 15.469047 16.084719 15.248219 16.136719 15.074219 C 16.188719 14.900219 16.370125 14.719719 16.828125 14.386719 C 17.021125 14.246719 17.22525 14.063422 17.28125 13.982422 C 17.33825 13.901422 17.398063 13.835938 17.414062 13.835938 C 17.530063 13.835938 17.518531 14.335734 17.394531 14.677734 C 17.294531 14.945734 17.213344 15.22 17.152344 15.5 C 17.113344 15.694 17.024391 16.095766 16.900391 16.634766 C 16.785391 17.141766 16.596688 17.64825 16.429688 17.90625 C 16.340688 18.04425 16.327406 18.096547 16.316406 18.435547 C 16.305406 18.774547 16.385141 19.578063 16.494141 20.289062 C 16.517141 20.520062 16.523672 20.752375 16.513672 20.984375 C 16.501672 21.399375 16.508359 21.482375 16.568359 21.609375 C 16.688359 21.863375 16.71175 22.063844 16.71875 22.964844 C 16.72275 23.447844 16.738859 23.956656 16.755859 24.097656 C 16.790859 24.385656 16.802531 25.855156 16.769531 25.910156 C 16.747531 25.946156 16.624844 26.739125 16.589844 27.078125 C 16.567844 27.299125 16.543672 27.783344 16.513672 28.652344 C 16.497727 29.128701 16.535156 29.811315 16.589844 29.992188 C 16.64033 30.032241 17.281318 29.533105 17.425781 29.324219 L 17.525391 29.179688 L 17.525391 28.138672 C 17.525391 27.496672 17.508422 27.018531 17.482422 26.894531 C 17.459422 26.783531 17.432828 26.599234 17.423828 26.490234 C 17.411828 26.361234 17.390281 26.233422 17.363281 26.107422 C 17.315281 25.894422 17.305078 25.137359 17.330078 23.693359 C 17.349078 22.587359 17.341844 22.537109 17.089844 21.662109 C 17.051844 21.503109 17.030344 21.340734 17.027344 21.177734 L 17.023438 20.892578 L 17.242188 20.701172 C 17.872187 20.146172 18.032703 19.819125 17.845703 19.453125 C 17.726703 19.214125 17.694328 18.8555 17.736328 18.1875 C 17.755328 17.8565 17.789547 17.459594 17.810547 17.308594 C 17.831547 17.157594 17.855234 16.941031 17.865234 16.832031 C 17.920234 16.205031 18.044578 15.699219 18.142578 15.699219 C 18.200578 15.699219 18.361438 15.287969 18.398438 15.042969 C 18.458437 14.654969 18.430516 13.860437 18.353516 13.773438 C 18.315516 13.726437 18.286578 13.672234 18.267578 13.615234 C 18.235578 13.525234 18.198297 13.437563 18.154297 13.351562 C 18.091297 13.228563 18.060406 13.091125 18.066406 12.953125 C 18.066406 12.688125 18.133781 12.53325 18.300781 12.40625 C 18.364781 12.35625 18.593734 12.155938 18.802734 11.960938 L 19.185547 11.605469 L 19.310547 11.210938 C 19.436547 10.813937 19.670063 10.271562 19.789062 10.101562 C 19.824062 10.052562 19.932297 9.8550625 20.029297 9.6640625 C 20.242297 9.2440625 20.478313 8.9384219 20.945312 8.4824219 L 21.298828 8.1386719 L 21.253906 8.0039062 C 21.229906 7.9289062 21.206125 7.6612031 21.203125 7.4082031 L 21.197266 6.9472656 L 20.953125 6.7246094 L 20.710938 6.5 L 20.744141 6.0957031 C 20.763141 5.8747031 20.797266 5.5195938 20.822266 5.3085938 C 20.899266 4.6545937 20.829266 4.4858437 20.572266 4.7148438 C 20.423266 4.8468437 20.322578 5.05375 20.267578 5.34375 C 20.241578 5.48575 20.187375 5.6221406 20.109375 5.7441406 C 20.026375 5.8711406 19.972125 6.0169688 19.953125 6.1679688 C 19.797125 7.1019687 19.639 7.5072813 19.25 7.9882812 C 19.029 8.2652813 18.742969 8.4849531 18.417969 8.6269531 C 18.276969 8.6939531 18.04525 8.8155312 17.90625 8.8945312 C 17.76725 8.9735313 17.520375 9.1103594 17.359375 9.1933594 C 16.809375 9.4753594 16.724469 9.5799531 16.605469 10.126953 C 16.473469 10.732953 16.456656 10.776063 16.347656 10.789062 C 16.270656 10.798063 16.239875 10.777109 16.171875 10.662109 C 16.103875 10.547109 16.091797 10.472078 16.091797 10.205078 C 16.088797 10.041078 16.107437 9.87775 16.148438 9.71875 C 16.227438 9.48475 16.218375 9.378375 16.109375 9.234375 C 15.986375 9.074375 15.963156 8.8589375 16.035156 8.7109375 C 16.107156 8.5629375 16.107156 8.3408125 16.035156 8.1328125 C 16.000156 8.0278125 15.974031 7.9195469 15.957031 7.8105469 C 15.938031 7.6735469 15.947531 7.6345937 16.019531 7.5585938 C 16.051531 7.5195937 16.091719 7.48875 16.136719 7.46875 C 16.185719 7.44675 16.230578 7.4159531 16.267578 7.3769531 C 16.321578 7.3219531 16.515266 7.1768281 16.697266 7.0488281 C 16.831266 6.9598281 16.959078 6.8599062 17.080078 6.7539062 C 17.117078 6.7129063 17.163844 6.6811562 17.214844 6.6601562 C 17.276844 6.6241563 17.323609 6.5689531 17.349609 6.5019531 C 17.407609 6.3969531 17.489844 6.3072344 17.589844 6.2402344 C 17.674844 6.1842344 17.750453 6.1141563 17.814453 6.0351562 C 17.843453 5.9801562 17.8925 5.9667969 18.0625 5.9667969 C 18.2765 5.9667969 18.446219 5.9135938 18.949219 5.6835938 C 19.359219 5.4955938 19.455516 5.3829063 19.728516 4.7539062 C 19.754516 4.7019063 19.773109 4.6468438 19.787109 4.5898438 C 19.787109 4.5118438 20.052875 4.158125 20.171875 4.078125 C 20.303875 3.990125 20.319734 3.9362188 20.302734 3.6992188 C 20.289734 3.6232187 20.265469 3.5494687 20.230469 3.4804688 C 20.182469 3.3764688 20.144234 3.2692031 20.115234 3.1582031 C 20.071234 2.9892031 20.073094 2.9415938 20.121094 2.8085938 C 20.176094 2.6555937 20.175875 2.65325 20.046875 2.40625 C 19.953875 2.22725 19.87725 2.133125 19.78125 2.078125 L 19.646484 2 z M 16.589844 29.992188 C 16.588608 29.991207 16.578627 29.997743 16.578125 29.996094 L 16.589844 29.996094 C 16.589655 29.995482 16.590032 29.992811 16.589844 29.992188 z M 21.783203 9.140625 C 20.630203 10.326625 20.275328 11.238984 20.111328 12.083984 C 22.157328 14.197984 23.628906 15.802734 23.628906 15.802734 C 25.585906 18.618734 24.181031 21.059594 21.082031 20.683594 L 21.082031 20.685547 C 22.536031 22.297547 27.076797 21.173547 26.841797 17.310547 C 26.816797 16.886547 26.662203 12.613625 21.783203 9.140625 z M 9.5527344 10.892578 L 9.5527344 10.896484 C 5.0087344 14.689484 4.8667969 18.973203 6.2167969 21.158203 C 7.3477969 22.992203 10.837281 23.026734 11.613281 21.427734 C 7.8532813 22.213734 6.4856406 19.50025 8.1816406 16.65625 C 8.6026406 15.94525 9.9889531 14.75825 12.376953 12.78125 C 12.142953 12.24825 11.822328 12.094375 11.111328 11.859375 C 10.529328 11.667375 10.704734 11.591578 9.5527344 10.892578 z M 13.765625 20.318359 C 13.731625 20.352359 13.740344 21.525234 13.777344 21.865234 C 13.796344 22.047234 13.816406 22.227578 13.816406 22.267578 C 13.820406 22.361578 13.948906 23.157922 14.003906 23.419922 C 14.026906 23.529922 14.059172 23.7635 14.076172 23.9375 C 14.084172 24.0575 14.101859 24.176969 14.130859 24.292969 C 14.173859 24.487969 14.205562 24.684812 14.226562 24.882812 C 14.247563 25.080813 14.278313 25.277656 14.320312 25.472656 C 14.321312 25.476656 14.325172 25.479469 14.326172 25.480469 C 14.340172 25.493469 14.360047 25.494469 14.373047 25.480469 C 14.412047 25.441469 14.476531 24.682469 14.519531 23.730469 C 14.537531 23.328469 14.560312 22.916406 14.570312 22.816406 C 14.580312 22.716406 14.597422 22.427781 14.607422 22.175781 C 14.617422 21.923781 14.636391 21.560234 14.650391 21.365234 L 14.675781 21.011719 L 14.386719 20.724609 C 14.129719 20.469609 13.820625 20.263359 13.765625 20.318359 z M 18.220703 20.671875 C 18.179203 20.676875 18.111141 20.721141 17.994141 20.806641 C 17.760141 20.977641 17.705078 21.073687 17.705078 21.304688 C 17.705078 21.503687 17.833141 22.411703 17.869141 22.470703 C 17.936141 22.580703 18.005672 23.260109 18.013672 23.912109 C 18.018672 24.314109 18.0405 24.736703 18.0625 24.845703 C 18.1375 25.223703 18.1875 25.961469 18.1875 26.730469 C 18.1875 27.152469 18.195078 27.511344 18.205078 27.527344 L 18.212891 27.527344 C 18.247891 27.585344 18.361391 27.437156 18.400391 27.285156 C 18.474391 26.982156 18.518766 26.088344 18.509766 25.027344 C 18.500766 24.150344 18.509453 23.859656 18.564453 23.472656 C 18.652453 22.837656 18.653203 22.819906 18.658203 22.503906 C 18.662203 22.204906 18.6525 22.141453 18.4375 21.314453 C 18.3745 21.074453 18.309922 20.827578 18.294922 20.767578 C 18.277922 20.701078 18.262203 20.666875 18.220703 20.671875 z"/>
</svg>

<svg xmlns="http://www.w3.org/2000/svg" viewBox="0 0 32 32" height="1em" width="1em">
  <path d="m19.646 2-.251.123c-.244.121-.263.126-.834.148l-.588.022-.239.13c-.222.123-.247.128-.384.09a1.302 1.302 0 0 1-.274-.118.99.99 0 0 0-.328-.104 1.654 1.654 0 0 1-.318-.074c-.101-.042-.148-.04-.348.021a1.57 1.57 0 0 1-.326.073c-.14.019-.28.05-.414.091-.175.051-.355.083-.403.07-.12-.03-.394.1-.482.227-.16.274-.457.725-.33 1.049.186.246.858.06.842.477-.117.49-.303.96-.473 1.433l-.619-.138c.409-1.38.346-.854-.772-1.586.03-.13.073-.254.131-.373.153-.223.295-.46.295-.493a.354.354 0 0 1 .074-.127c.09-.115.1-.38.016-.464-.084-.085-.172-.094-.639-.084-.379.006-.44.017-.62.109-.116.059-.365.256-.58.46l-.378.358.012.711.012.711.133.274c.132.273.276.425.617.656.052.032.1.067.146.107.011.013.123.106.252.207.128.101.285.223.348.278.216.187.461.331.728.43.487.172.617.343.707.95.047.314.185.763.27.872.024.029.086.265.225.875.022.1.046.24.054.31.008.071.031.202.051.293.058.323.095.65.11.977 0 .134-.015.161-.124.228a.502.502 0 0 1-.181.076c-.08 0-.227-.298-.3-.607-.108-.484-.263-.688-.546-.732-.237-.037-.645-.336-1.256-.922a1.015 1.015 0 0 0-.258-.157c-.408-.17-.65-.337-.832-.576-.113-.148-.123-.183-.123-.402.007-.204.028-.408.057-.61.07-.48.067-.751-.006-1.013-.094-.328-.342-.464-.516-.274-.157.171-.453.986-.58 1.598-.057.276-.12.432-.242.588a.229.229 0 0 0-.049.213c.027.142.255.653.328.736.053.071.101.147.143.225l.092.164-.074.254c-.122.418-.123.393.03.525.078.065.417.395.753.723.702.692.82.76 1.304.795.3.022.422.066.467.168.013.03.028.328.033.66.023 1.396.02 1.376.34 1.818l.18.25.049.477c.06.574.06 2.37 0 3.228l-.041.598.107.152c.058.084.377.426.705.758.457.46.63.661.725.84l.123.234-.023.916c-.013.504-.042.974-.063 1.045-.021.071-.063.508-.094.971-.052.789-.097 1.39-.142 1.902a66.15 66.15 0 0 0-.057.696c-.058.784-.144 1.619-.182 1.783-.064.282-.048.333.157.545.244.25.648.557.683.517.061-.07.113-.675.133-1.566a59.33 59.33 0 0 1 .033-1.152c.008-.176.038-1.064.11-3.348.01-.342.028-.768.039-.947.02-.331-.01-.579-.131-1.102a4.71 4.71 0 0 1-.094-.566 2.132 2.132 0 0 0-.113-.492c-.05-.12-.08-.226-.07-.235.008-.009 0-.046-.02-.082-.057-.107-.105-.701-.11-1.351-.003-.65-.053-.92-.24-1.29-.094-.185-.578-.882-.754-1.084l-.109-.123.02-.668c.022-.705.067-1.039.164-1.203.08-.138.154-.113.248.084.088.185.175.281.558.62.285.25.407.41.407.54a.756.756 0 0 1-.092.252c-.138.266-.125.553.054 1.149.08.263.154.557.168.652.012.091.04.178.08.26.05.079.057.084.112.03a.542.542 0 0 0 .086-.233 17.15 17.15 0 0 1 .146-.9c.064-.279.05-.57-.039-.84-.044-.136-.094-.257-.113-.268-.046-.029-.044-.25.008-.424s.233-.354.691-.687c.193-.14.397-.324.453-.405.057-.08.117-.146.133-.146.116 0 .105.5-.02.842a6.01 6.01 0 0 0-.242.822c-.039.194-.128.596-.252 1.135-.115.507-.303 1.013-.47 1.271-.09.138-.103.19-.114.53-.01.339.07 1.142.178 1.853.023.231.03.463.02.695-.012.415-.006.498.054.625.12.254.144.455.15 1.356.005.483.02.992.038 1.133.035.288.047 1.757.014 1.812-.022.036-.145.83-.18 1.168a32.21 32.21 0 0 0-.076 1.574c-.016.477.021 1.16.076 1.34.05.04.691-.459.836-.668l.1-.144v-1.041c0-.642-.018-1.12-.044-1.244a4.102 4.102 0 0 1-.058-.405 3.279 3.279 0 0 0-.06-.383c-.049-.213-.059-.97-.034-2.414.02-1.106.012-1.156-.24-2.03a2.264 2.264 0 0 1-.063-.485l-.004-.285.22-.192c.63-.555.79-.882.603-1.248-.12-.239-.152-.598-.11-1.265.02-.331.054-.728.075-.88.02-.15.044-.367.054-.476.055-.627.18-1.133.278-1.133.058 0 .218-.411.255-.656.06-.388.033-1.183-.044-1.27a.507.507 0 0 1-.086-.158 2.18 2.18 0 0 0-.114-.263.8.8 0 0 1-.088-.399c0-.265.068-.42.235-.547.064-.05.293-.25.502-.445l.383-.356.125-.394c.126-.397.36-.94.478-1.11.035-.048.143-.246.24-.437.213-.42.45-.726.916-1.182l.354-.343-.045-.135c-.024-.075-.048-.343-.05-.596l-.007-.46-.244-.223-.242-.225.033-.404c.02-.221.053-.576.078-.787.077-.654.007-.823-.25-.594-.149.132-.25.339-.304.629a1.12 1.12 0 0 1-.159.4 1.008 1.008 0 0 0-.156.424c-.156.934-.314 1.34-.703 1.82a2.184 2.184 0 0 1-.832.639 9.617 9.617 0 0 0-.512.268 18.38 18.38 0 0 1-.547.298c-.55.282-.635.387-.754.934-.132.606-.148.65-.257.662-.077.01-.108-.012-.176-.127-.068-.115-.08-.19-.08-.457a1.813 1.813 0 0 1 .056-.486c.08-.234.07-.34-.039-.485a.521.521 0 0 1-.074-.523c.072-.148.072-.37 0-.578a1.992 1.992 0 0 1-.078-.322c-.019-.137-.01-.176.063-.252a.32.32 0 0 1 .117-.09.413.413 0 0 0 .13-.092c.055-.055.248-.2.43-.328.134-.09.262-.19.383-.295a.373.373 0 0 1 .135-.094.312.312 0 0 0 .135-.158.753.753 0 0 1 .24-.262.996.996 0 0 0 .224-.205c.03-.055.078-.068.248-.068.214 0 .384-.053.887-.283.41-.188.507-.301.78-.93a.782.782 0 0 0 .058-.164c0-.078.266-.432.385-.512.132-.088.148-.142.13-.379a.77.77 0 0 0-.072-.219 1.932 1.932 0 0 1-.115-.322c-.044-.169-.042-.216.006-.35.055-.152.055-.155-.074-.402-.093-.179-.17-.273-.266-.328L19.646 2zM16.59 29.992c-.001 0-.011.006-.012.004h.012v-.004zm5.193-20.851c-1.153 1.186-1.508 2.098-1.672 2.943a211.159 211.159 0 0 1 3.518 3.719c1.957 2.816.552 5.257-2.547 4.88v.003c1.454 1.612 5.995.488 5.76-3.375-.025-.424-.18-4.697-5.059-8.17zm-12.23 1.752v.003c-4.544 3.793-4.686 8.077-3.336 10.262 1.13 1.834 4.62 1.869 5.396.27-3.76.786-5.127-1.928-3.431-4.772.42-.71 1.807-1.898 4.195-3.875-.234-.533-.555-.687-1.266-.922-.582-.192-.406-.267-1.558-.966zm4.213 9.425c-.034.034-.026 1.207.011 1.547.02.182.04.363.04.403.003.094.132.89.187 1.152.023.11.055.343.072.517.008.12.026.24.055.356.043.195.075.392.096.59.02.198.051.395.093.59.001.004.005.006.006.007.014.013.034.014.047 0 .039-.039.104-.798.147-1.75.018-.402.04-.814.05-.914.01-.1.027-.388.037-.64.01-.252.03-.616.043-.81l.026-.354-.29-.287c-.256-.255-.565-.462-.62-.407zm4.455.354c-.042.005-.11.05-.227.135-.234.17-.289.267-.289.498 0 .199.128 1.107.164 1.166.067.11.137.79.145 1.441.005.402.027.825.049.934.075.378.125 1.115.125 1.884 0 .422.007.781.017.797h.008c.035.058.148-.09.187-.242.074-.303.119-1.197.11-2.258-.01-.877 0-1.167.054-1.554.088-.635.09-.653.094-.97.004-.298-.006-.362-.22-1.189l-.143-.546c-.017-.067-.033-.101-.074-.096z"/>
</svg>
